icons/label-arrow-right-outline.svg

<svg xmlns="http://www.w3.org/2000/svg" width="24" height="24" viewBox="0 0 24 24">
  <path d="M14.1715729,4 C14.9672223,4 15.7302841,4.31607052 16.2928932,4.87867966 L16.2928932,4.87867966 L21.2928932,9.87867966 C22.4644661,11.0502525 22.4644661,12.9497475 21.2928932,14.1213203 L21.2928932,14.1213203 L16.2928932,19.1213203 C15.7302841,19.6839295 14.9672223,20 14.1715729,20 L14.1715729,20 L5,20 C3.34314575,20 2,18.6568542 2,17 L2,17 L2,7 C2,5.34314575 3.34314575,4 5,4 L5,4 Z M14.1715729,6 L5,6 C4.44771525,6 4,6.44771525 4,7 L4,7 L4,17 C4,17.5522847 4.44771525,18 5,18 L5,18 L14.1715729,18 C14.4367894,18 14.6911433,17.8946432 14.8786797,17.7071068 L14.8786797,17.7071068 L19.8786797,12.7071068 C20.2692039,12.3165825 20.2692039,11.6834175 19.8786797,11.2928932 L19.8786797,11.2928932 L14.8786797,6.29289322 C14.6911433,6.10535684 14.4367894,6 14.1715729,6 L14.1715729,6 Z M13.767,11.359 L13.7803112,11.374551 L13.7837744,11.3788907 L13.779,11.374 L13.8036654,11.4046934 L13.8036654,11.4046934 C13.8215099,11.4288693 13.8382813,11.453725 13.8539326,11.4793398 L13.8753288,11.5159379 L13.8753288,11.5159379 C13.8862061,11.5357061 13.8966234,11.5561086 13.9063462,11.5769009 L13.9287745,11.628664 L13.9287745,11.628664 C13.9366843,11.6484208 13.9438775,11.6682023 13.9504533,11.6882636 C13.9552713,11.7031487 13.9599023,11.7185367 13.9641549,11.734007 C13.9701664,11.7555635 13.9753602,11.7772539 13.9798348,11.7992059 C13.9832978,11.8166247 13.9863719,11.834051 13.9889822,11.8515331 L13.996002,11.909968 L13.996002,11.909968 C13.99693,11.9208131 13.9976744,11.9308872 13.9982669,11.9409686 L13.9998198,11.980824 L14,12 L14,12 L13.999,12.019 L13.9982669,12.0590314 L13.997,12.075 L13.997,12.059 L13.996,12.081 L13.9889807,12.1489612 L13.9889807,12.1489612 C13.9863719,12.165949 13.9832978,12.1833753 13.9797599,12.2007258 C13.9753602,12.2227461 13.9701664,12.2444365 13.964279,12.2658396 C13.9599023,12.2814633 13.9552713,12.2968513 13.9502619,12.3121425 C13.9438775,12.3317977 13.9366843,12.3515792 13.928896,12.3710585 L13.9063266,12.4232215 L13.9063266,12.4232215 C13.8966234,12.4438914 13.8862061,12.4642939 13.8751242,12.484277 C13.8685012,12.4963944 13.8613931,12.5086131 13.8540045,12.5207088 C13.8382813,12.546275 13.8215099,12.5711307 13.8036865,12.5951593 C13.7992821,12.6012086 13.7948255,12.6070733 13.7902954,12.6128994 C13.7849289,12.6196628 13.7826279,12.6225624 13.7803112,12.625449 L13.7071068,12.7071068 L10.7071068,15.7071068 C10.3165825,16.0976311 9.68341751,16.0976311 9.29289322,15.7071068 C8.93240926,15.3466228 8.90467972,14.7793918 9.20970461,14.3871006 L9.29289322,14.2928932 L10.585,13 L7,13 C6.44771525,13 6,12.5522847 6,12 C6,11.4871642 6.38604019,11.0644928 6.88337887,11.0067277 L7,11 L10.585,11 L9.29289322,9.70710678 C8.90236893,9.31658249 8.90236893,8.68341751 9.29289322,8.29289322 C9.65337718,7.93240926 10.2206082,7.90467972 10.6128994,8.20970461 L10.7071068,8.29289322 L13.7071068,11.2928932 L13.775,11.37 L13.767,11.359 Z"/>
</svg>

<svg xmlns="http://www.w3.org/2000/svg" viewBox="0 0 24 24">
  <path d="M14.17 4a3 3 0 0 1 2.12.88l5 5a3 3 0 0 1 0 4.24l-5 5a3 3 0 0 1-2.12.88H5a3 3 0 0 1-3-3V7a3 3 0 0 1 3-3zm0 2H5a1 1 0 0 0-1 1v10a1 1 0 0 0 1 1h9.17a1 1 0 0 0 .7-.3l5-5a1 1 0 0 0 0-1.4l-5-5a1 1 0 0 0-.7-.3zm-.4 5.36.01.01.02.03.05.08.03.04.03.06.02.05a.99.99 0 0 1 .06.22v.09l.01.04v.09-.01.02l-.01.07a1.08 1.08 0 0 1-.06.22l-.02.05a1.02 1.02 0 0 1-.13.2l-.07.09-3 3a1 1 0 0 1-1.5-1.32l.08-.1L10.6 13H7a1 1 0 0 1-.12-2h3.71l-1.3-1.3a1 1 0 0 1 1.32-1.49l.1.08 3 3 .06.08v-.01z"/>
</svg>
